neru-light-classic/32x32/apps/netbeans.svg

<?xml version="1.0" encoding="UTF-8" standalone="no"?>
<svg
   xmlns:dc="http://purl.org/dc/elements/1.1/"
   xmlns:cc="http://creativecommons.org/ns#"
   xmlns:rdf="http://www.w3.org/1999/02/22-rdf-syntax-ns#"
   xmlns:svg="http://www.w3.org/2000/svg"
   xmlns="http://www.w3.org/2000/svg"
   xmlns:sodipodi="http://sodipodi.sourceforge.net/DTD/sodipodi-0.dtd"
   xmlns:inkscape="http://www.inkscape.org/namespaces/inkscape"
   width="32"
   version="1.1"
   height="32"
   viewBox="0 0 32 32"
   id="svg14"
   sodipodi:docname="netbeans.svg"
   inkscape:version="0.92.1 r">
  <metadata
     id="metadata20">
    <rdf:RDF>
      <cc:Work
         rdf:about="">
        <dc:format>image/svg+xml</dc:format>
        <dc:type
           rdf:resource="http://purl.org/dc/dcmitype/StillImage" />
      </cc:Work>
    </rdf:RDF>
  </metadata>
  <defs
     id="defs18" />
  <sodipodi:namedview
     pagecolor="#ffffff"
     bordercolor="#666666"
     borderopacity="1"
     objecttolerance="10"
     gridtolerance="10"
     guidetolerance="10"
     inkscape:pageopacity="0"
     inkscape:pageshadow="2"
     inkscape:window-width="640"
     inkscape:window-height="480"
     id="namedview16"
     showgrid="false"
     inkscape:zoom="6.3197669"
     inkscape:cx="-2.8216228"
     inkscape:cy="14.351556"
     inkscape:current-layer="svg14" />
  <g
     id="g4572">
    <rect
       inkscape:export-ydpi="71"
       inkscape:export-xdpi="71"
       inkscape:export-filename="/home/ramil/3.png"
       ry="5.575182"
       y="1.8983059"
       x="1.8983059"
       height="28.203388"
       width="28.203388"
       id="rect4497-3-3"
       style="opacity:1;fill:#e45d5d;fill-opacity:1;fill-rule:evenodd;stroke:none;stroke-width:1.03534329;stroke-linecap:round;stroke-linejoin:bevel;stroke-miterlimit:4;stroke-dasharray:none;stroke-dashoffset:0;stroke-opacity:1" />
    <path
       id="path4554"
       d="M 30.101562 7.8671875 L 16 16.181641 L 16 30.101562 L 24.527344 30.101562 C 27.615995 30.101563 30.101562 27.615995 30.101562 24.527344 L 30.101562 7.8671875 z "
       style="opacity:1;fill:#e45d5d;fill-opacity:1;fill-rule:evenodd;stroke:none;stroke-width:1.03534329;stroke-linecap:round;stroke-linejoin:bevel;stroke-miterlimit:4;stroke-dasharray:none;stroke-dashoffset:0;stroke-opacity:1" />
    <path
       id="path4557"
       d="M 16 16.181641 L 1.8984375 7.8671875 L 1.8984375 24.527344 C 1.8984375 27.615995 4.3840055 30.101563 7.4726562 30.101562 L 16 30.101562 L 16 16.181641 z "
       style="opacity:1;fill:#ed7d7d;fill-opacity:1;fill-rule:evenodd;stroke:none;stroke-width:1.03534329;stroke-linecap:round;stroke-linejoin:bevel;stroke-miterlimit:4;stroke-dasharray:none;stroke-dashoffset:0;stroke-opacity:1" />
    <path
       id="rect4497-3"
       d="M 7.4726562 1.8984375 C 4.3840055 1.8984375 1.8984375 4.3840055 1.8984375 7.4726562 L 1.8984375 7.8671875 L 16 16.181641 L 30.101562 7.8671875 L 30.101562 7.4726562 C 30.101563 4.3840055 27.615995 1.8984375 24.527344 1.8984375 L 7.4726562 1.8984375 z "
       style="opacity:1;fill:#e36d6d;fill-opacity:1;fill-rule:evenodd;stroke:none;stroke-width:1.03534329;stroke-linecap:round;stroke-linejoin:bevel;stroke-miterlimit:4;stroke-dasharray:none;stroke-dashoffset:0;stroke-opacity:1" />
  </g>
</svg>

<svg xmlns="http://www.w3.org/2000/svg" width="32" height="32"><g fill-rule="evenodd"><rect ry="5.575" y="1.898" x="1.898" height="28.203" width="28.203" fill="#e45d5d"/><path d="M30.102 7.867L16 16.182v13.92h8.527a5.561 5.561 0 0 0 5.575-5.575V7.867z" fill="#e45d5d"/><path d="M16 16.182L1.898 7.867v16.66a5.561 5.561 0 0 0 5.575 5.575H16v-13.92z" fill="#ed7d7d"/><path d="M7.473 1.898a5.561 5.561 0 0 0-5.575 5.575v.394L16 16.182l14.102-8.315v-.394a5.561 5.561 0 0 0-5.575-5.575H7.473z" fill="#e36d6d"/></g></svg>
